; generated by PrusaSlicer 2.2.0+win64 on 2021-08-11 at 22:59:33 UTC

; 

; external perimeters extrusion width = 0.45mm
; perimeters extrusion width = 0.45mm
; infill extrusion width = 0.45mm
; solid infill extrusion width = 0.45mm
; top infill extrusion width = 0.40mm
; first layer extrusion width = 0.42mm

M201 X500 Y500 Z100 E5000 ; sets maximum accelerations, mm/sec^2
M203 X500 Y500 Z10 E60 ; sets maximum feedrates, mm/sec
M204 P500 R1000 T500 ; sets acceleration (P, T) and retract acceleration (R), mm/sec^2
M205 X8.00 Y8.00 Z0.40 E5.00 ; sets the jerk limits, mm/sec
M205 S0 T0 ; sets the minimum extruding and travel feed rate, mm/sec
M107
G90 ; use absolute coordinates
M83 ; extruder relative mode
M104 S215 ; set extruder temp
M140 S40 ; set bed temp
M190 S40 ; wait for bed temp
M109 S215 ; wait for extruder temp
G28 ; home all
G1 Z2 F240
G1 X2 Y10 F3000
G1 Z0.28 F240
G92 E0.0
G1 Y190 E15.0 F1500.0 ; intro line
G1 X2.3 F5000
G1 Y10 E30 F1200.0 ; intro line
G92 E0.0
G21 ; set units to millimeters
G90 ; use absolute coordinates
M83 ; use relative distances for extrusion
; Filament gcode
;BEFORE_LAYER_CHANGE
;0.2


G1 E-5.00000 F3600.00000
G1 Z0.200 F9000.000
;AFTER_LAYER_CHANGE
;0.2
G1 X175.744 Y33.236
G1 E5.00000 F2400.00000
G1 F1200.000
G1 X176.516 Y33.755 E0.02919
G1 X177.206 Y34.677 E0.03609
G1 X177.378 Y35.164 E0.01621
G1 X177.441 Y35.678 E0.01621
G1 X177.441 Y106.676 E2.22611
G1 X177.234 Y184.579 E2.44261
G1 X177.084 Y185.399 E0.02614
G1 X176.663 Y186.115 E0.02602
G1 X176.292 Y186.464 E0.01597
G1 X175.852 Y186.728 E0.01609
G1 X175.369 Y186.890 E0.01597
G1 X174.863 Y186.946 E0.01597
G1 X45.247 Y186.946 E4.06399
G1 X44.431 Y186.798 E0.02602
G1 X43.715 Y186.377 E0.02602
G1 X43.370 Y186.013 E0.01574
G1 X43.108 Y185.581 E0.01585
G1 X42.942 Y185.103 E0.01585
G1 X42.882 Y184.605 E0.01574
G1 X42.559 Y106.627 E2.44494
G1 X42.559 Y38.341 E2.14107
G1 X42.905 Y34.974 E0.10615
G1 X43.099 Y34.394 E0.01917
G1 X43.432 Y33.885 E0.01906
G1 X43.803 Y33.536 E0.01597
G1 X44.236 Y33.275 E0.01585
G1 X44.714 Y33.112 E0.01585
G1 X45.220 Y33.054 E0.01597
G1 X174.834 Y33.054 E4.06395
G1 X175.685 Y33.224 E0.02719
G1 E-3.50000 F3600.00000
G1 F7200.000
G1 X176.516 Y33.755 E-0.46866
G1 X177.206 Y34.677 E-0.54682
G1 X177.378 Y35.164 E-0.24558
G1 X177.420 Y35.507 E-0.16395
G1 E-0.07500 F3600.00000
G1 X101.153 Y139.712 F9000.000
G1 E5.00000 F2400.00000
G1 F1200.000
G1 X102.170 Y140.627 E0.04289
G1 X103.172 Y141.821 E0.04888
G1 X103.941 Y143.066 E0.04589
G1 X104.497 Y144.316 E0.04289
G1 X104.927 Y145.814 E0.04888
G1 X105.124 Y147.265 E0.04589
G1 X105.124 Y148.630 E0.04282
G1 X104.928 Y150.078 E0.04581
G1 X104.530 Y151.489 E0.04596
G1 X103.896 Y152.913 E0.04888
G1 X103.171 Y154.073 E0.04289
G1 X102.236 Y155.199 E0.04589
G1 X101.078 Y156.242 E0.04888
G1 X99.944 Y157.007 E0.04289
G1 X98.631 Y157.655 E0.04589
G1 X97.146 Y158.138 E0.04896
G1 X95.702 Y158.385 E0.04596
G1 X94.241 Y158.429 E0.04581
G1 X92.883 Y158.286 E0.04282
G1 X91.461 Y157.939 E0.04589
G1 X90.016 Y157.355 E0.04888
G1 X88.831 Y156.671 E0.04289
G1 X87.675 Y155.777 E0.04581
G1 X86.652 Y154.728 E0.04596
G1 X85.736 Y153.467 E0.04888
G1 X85.093 Y152.259 E0.04289
G1 X84.586 Y150.886 E0.04589
G1 X84.261 Y149.359 E0.04896
G1 X84.166 Y147.898 E0.04589
G1 X84.262 Y146.534 E0.04289
G1 X84.586 Y145.009 E0.04888
G1 X85.093 Y143.636 E0.04589
G1 X85.736 Y142.428 E0.04289
G1 X86.652 Y141.167 E0.04888
G1 X87.675 Y140.117 E0.04596
G1 X88.831 Y139.224 E0.04581
G1 X90.016 Y138.540 E0.04289
G1 X91.461 Y137.956 E0.04888
G1 X92.883 Y137.608 E0.04589
G1 X94.243 Y137.465 E0.04289
G1 X95.802 Y137.520 E0.04888
G1 X97.242 Y137.781 E0.04589
G1 X98.542 Y138.204 E0.04289
G1 X99.944 Y138.887 E0.04888
G1 X101.103 Y139.678 E0.04401
G1 X100.891 Y139.989 F9000.000
G1 F1200.000
G1 X101.898 Y140.889 E0.04234
G1 X102.865 Y142.043 E0.04720
G1 X103.607 Y143.243 E0.04423
G1 X104.142 Y144.445 E0.04127
G1 X104.557 Y145.892 E0.04720
G1 X104.747 Y147.290 E0.04423
G1 X104.747 Y148.605 E0.04122
G1 X104.557 Y150.001 E0.04419
G1 X104.175 Y151.361 E0.04428
G1 X103.563 Y152.736 E0.04720
G1 X102.865 Y153.852 E0.04127
G1 X101.964 Y154.937 E0.04423
G1 X100.845 Y155.944 E0.04720
G1 X99.754 Y156.680 E0.04127
G1 X98.489 Y157.305 E0.04423
G1 X97.056 Y157.771 E0.04725
G1 X95.664 Y158.009 E0.04428
G1 X94.255 Y158.051 E0.04419
G1 X92.948 Y157.914 E0.04122
G1 X91.577 Y157.579 E0.04423
G1 X90.181 Y157.015 E0.04720
G1 X89.042 Y156.357 E0.04127
G1 X87.927 Y155.495 E0.04419
G1 X86.941 Y154.484 E0.04428
G1 X86.056 Y153.266 E0.04720
G1 X85.438 Y152.104 E0.04127
G1 X84.949 Y150.781 E0.04423
G1 X84.636 Y149.307 E0.04725
G1 X84.544 Y147.899 E0.04423
G1 X84.636 Y146.586 E0.04127
G1 X84.949 Y145.114 E0.04720
G1 X85.438 Y143.791 E0.04423
G1 X86.056 Y142.628 E0.04127
G1 X86.941 Y141.411 E0.04720
G1 X87.927 Y140.400 E0.04428
G1 X89.042 Y139.537 E0.04419
G1 X90.181 Y138.879 E0.04127
G1 X91.577 Y138.315 E0.04720
G1 X92.948 Y137.981 E0.04423
G1 X94.257 Y137.843 E0.04127
G1 X95.761 Y137.896 E0.04720
G1 X97.149 Y138.148 E0.04423
G1 X98.401 Y138.554 E0.04127
G1 X99.754 Y139.214 E0.04720
G1 X100.841 Y139.956 E0.04127
G1 X100.629 Y140.267 F9000.000
G1 F1200.000
G1 X101.626 Y141.152 E0.04179
G1 X102.559 Y142.264 E0.04552
G1 X103.273 Y143.419 E0.04258
G1 X103.787 Y144.574 E0.03964
G1 X104.187 Y145.970 E0.04552
G1 X104.370 Y147.315 E0.04258
G1 X104.370 Y148.579 E0.03962
G1 X104.187 Y149.924 E0.04256
G1 X103.819 Y151.232 E0.04260
G1 X103.229 Y152.558 E0.04552
G1 X102.559 Y153.631 E0.03964
G1 X101.691 Y154.675 E0.04258
G1 X100.612 Y155.647 E0.04552
G1 X99.564 Y156.353 E0.03964
G1 X98.346 Y156.955 E0.04258
G1 X96.965 Y157.404 E0.04553
G1 X95.626 Y157.633 E0.04260
G1 X94.269 Y157.674 E0.04256
G1 X93.012 Y157.542 E0.03962
G1 X91.693 Y157.219 E0.04258
G1 X90.347 Y156.676 E0.04552
G1 X89.252 Y156.043 E0.03964
G1 X88.178 Y155.213 E0.04256
G1 X87.230 Y154.240 E0.04260
G1 X86.377 Y153.066 E0.04552
G1 X85.783 Y151.950 E0.03964
G1 X85.312 Y150.676 E0.04258
G1 X85.010 Y149.255 E0.04553
G1 X84.922 Y147.900 E0.04258
G1 X85.011 Y146.639 E0.03964
G1 X85.312 Y145.219 E0.04552
G1 X85.783 Y143.945 E0.04258
G1 X86.377 Y142.829 E0.03964
G1 X87.230 Y141.654 E0.04552
G1 X88.178 Y140.682 E0.04260
G1 X89.252 Y139.851 E0.04256
G1 X90.347 Y139.219 E0.03964
G1 X91.693 Y138.675 E0.04552
G1 X93.012 Y138.353 E0.04258
G1 X94.270 Y138.221 E0.03964
G1 X95.721 Y138.272 E0.04552
G1 X97.057 Y138.514 E0.04258
G1 X98.259 Y138.905 E0.03964
G1 X99.564 Y139.541 E0.04552
G1 X100.579 Y140.233 E0.03853
G1 X100.999 Y140.115 F9000.000
G1 E-3.50000 F3600.00000
G1 F7200.000
G1 X101.626 Y141.152 E-0.66137
G1 X102.559 Y142.264 E-0.68957
G1 X102.641 Y142.397 E-0.07407
G1 E-0.07500 F3600.00000
G1 X83.278 Y145.957 F9000.000
G1 E5.00000 F2400.00000
G1 F1200.000
G1 X83.495 Y147.501 E0.04888
G1 X83.488 Y148.964 E0.04589
G1 X83.298 Y150.317 E0.04282
G1 X82.902 Y151.725 E0.04589
G1 X82.267 Y153.152 E0.04896
G1 X81.485 Y154.389 E0.04589
G1 X80.606 Y155.437 E0.04289
G1 X79.449 Y156.479 E0.04881
G1 X78.315 Y157.243 E0.04289
G1 X77.005 Y157.890 E0.04581
G1 X75.613 Y158.350 E0.04596
G1 X74.075 Y158.621 E0.04896
G1 X72.612 Y158.665 E0.04589
G1 X71.252 Y158.522 E0.04289
G1 X69.742 Y158.146 E0.04881
G1 X68.473 Y157.633 E0.04289
G1 X67.204 Y156.909 E0.04581
G1 X66.047 Y156.014 E0.04589
G1 X65.023 Y154.964 E0.04596
G1 X64.105 Y153.701 E0.04896
G1 X63.425 Y152.405 E0.04589
G1 X62.957 Y151.120 E0.04289
G1 X62.633 Y149.595 E0.04888
G1 X62.538 Y148.135 E0.04589
G1 X62.633 Y146.770 E0.04289
G1 X62.957 Y145.247 E0.04881
G1 X63.425 Y143.962 E0.04289
G1 X64.105 Y142.666 E0.04589
G1 X65.022 Y141.405 E0.04888
G1 X65.972 Y140.421 E0.04289
G1 X67.121 Y139.514 E0.04589
G1 X68.473 Y138.734 E0.04896
G1 X69.835 Y138.191 E0.04596
G1 X71.254 Y137.845 E0.04581
G1 X72.615 Y137.702 E0.04289
G1 X74.173 Y137.756 E0.04888
G1 X75.613 Y138.017 E0.04589
G1 X76.914 Y138.440 E0.04289
G1 X78.315 Y139.124 E0.04888
G1 X79.524 Y139.948 E0.04589
G1 X80.539 Y140.862 E0.04282
G1 X81.485 Y141.978 E0.04589
G1 X82.313 Y143.302 E0.04896
G1 X82.901 Y144.642 E0.04589
G1 X83.262 Y145.899 E0.04101
G1 X82.899 Y146.003 F9000.000
G1 F1200.000
G1 X83.118 Y147.526 E0.04824
G1 X83.111 Y148.937 E0.04423
G1 X82.928 Y150.239 E0.04122
G1 X82.546 Y151.597 E0.04423
G1 X81.933 Y152.973 E0.04725
G1 X81.180 Y154.166 E0.04423
G1 X80.334 Y155.174 E0.04127
G1 X79.216 Y156.181 E0.04715
G1 X78.125 Y156.917 E0.04127
G1 X76.861 Y157.541 E0.04419
G1 X75.521 Y157.984 E0.04428
G1 X74.037 Y158.245 E0.04725
G1 X72.626 Y158.288 E0.04423
G1 X71.318 Y158.150 E0.04127
G1 X69.858 Y157.786 E0.04715
G1 X68.638 Y157.293 E0.04127
G1 X67.414 Y156.595 E0.04419
G1 X66.298 Y155.731 E0.04423
G1 X65.312 Y154.720 E0.04428
G1 X64.427 Y153.501 E0.04725
G1 X63.770 Y152.252 E0.04423
G1 X63.320 Y151.016 E0.04127
G1 X63.007 Y149.543 E0.04720
G1 X62.916 Y148.136 E0.04423
G1 X63.008 Y146.823 E0.04127
G1 X63.320 Y145.352 E0.04715
G1 X63.770 Y144.115 E0.04127
G1 X64.427 Y142.866 E0.04423
G1 X65.311 Y141.648 E0.04720
G1 X66.226 Y140.701 E0.04127
G1 X67.333 Y139.827 E0.04423
G1 X68.638 Y139.074 E0.04725
G1 X69.950 Y138.551 E0.04428
G1 X71.319 Y138.217 E0.04419
G1 X72.628 Y138.080 E0.04127
G1 X74.132 Y138.132 E0.04720
G1 X75.520 Y138.384 E0.04423
G1 X76.772 Y138.791 E0.04127
G1 X78.125 Y139.450 E0.04720
G1 X79.291 Y140.245 E0.04423
G1 X80.268 Y141.125 E0.04122
G1 X81.180 Y142.201 E0.04423
G1 X81.978 Y143.479 E0.04725
G1 X82.546 Y144.770 E0.04423
G1 X82.883 Y145.946 E0.03833
G1 X82.520 Y146.050 F9000.000
G1 F1200.000
G1 X82.741 Y147.552 E0.04761
G1 X82.734 Y148.910 E0.04258
G1 X82.558 Y150.161 E0.03962
G1 X82.191 Y151.468 E0.04258
G1 X81.600 Y152.795 E0.04553
G1 X80.875 Y153.943 E0.04258
G1 X80.062 Y154.912 E0.03964
G1 X78.983 Y155.883 E0.04550
G1 X77.935 Y156.590 E0.03964
G1 X76.718 Y157.191 E0.04256
G1 X75.428 Y157.617 E0.04260
G1 X73.998 Y157.869 E0.04553
G1 X72.641 Y157.910 E0.04258
G1 X71.383 Y157.778 E0.03964
G1 X69.975 Y157.427 E0.04550
G1 X68.803 Y156.953 E0.03964
G1 X67.624 Y156.280 E0.04256
G1 X66.550 Y155.449 E0.04258
G1 X65.601 Y154.477 E0.04260
G1 X64.748 Y153.302 E0.04553
G1 X64.116 Y152.100 E0.04258
G1 X63.684 Y150.912 E0.03964
G1 X63.382 Y149.492 E0.04552
G1 X63.294 Y148.136 E0.04258
G1 X63.382 Y146.875 E0.03964
G1 X63.684 Y145.456 E0.04550
G1 X64.116 Y144.268 E0.03964
G1 X64.748 Y143.066 E0.04258
G1 X65.601 Y141.891 E0.04552
G1 X66.479 Y140.982 E0.03964
G1 X67.545 Y140.140 E0.04258
G1 X68.803 Y139.414 E0.04553
G1 X70.065 Y138.911 E0.04260
G1 X71.384 Y138.589 E0.04256
G1 X72.641 Y138.457 E0.03964
G1 X74.092 Y138.508 E0.04552
G1 X75.428 Y138.750 E0.04258
G1 X76.631 Y139.141 E0.03964
G1 X77.935 Y139.777 E0.04552
G1 X79.057 Y140.542 E0.04258
G1 X79.997 Y141.388 E0.03962
G1 X80.875 Y142.424 E0.04258
G1 X81.644 Y143.656 E0.04553
G1 X82.190 Y144.899 E0.04258
G1 X82.504 Y145.992 E0.03565
G1 X82.901 Y146.171 F9000.000
G1 E-3.50000 F3600.00000
G1 F7200.000
G1 X82.741 Y147.552 E-0.74948
G1 X82.734 Y148.910 E-0.64506
G1 X82.725 Y148.973 E-0.03047
G1 E-0.07500 F3600.00000
G1 X71.123 Y122.491 F9000.000
G1 E5.00000 F2400.00000
G1 F1200.000
G1 X70.306 Y122.674 E0.02626
G1 X69.425 Y122.629 E0.02765
G1 X68.672 Y122.386 E0.02482
G1 X67.965 Y121.938 E0.02626
G1 X67.374 Y121.283 E0.02765
G1 X67.013 Y120.578 E0.02482
G1 X66.830 Y119.761 E0.02626
G1 X66.875 Y118.880 E0.02765
G1 X67.118 Y118.127 E0.02482
G1 X67.566 Y117.420 E0.02626
G1 X68.221 Y116.829 E0.02765
G1 X68.926 Y116.468 E0.02482
G1 X69.743 Y116.285 E0.02626
G1 X70.624 Y116.330 E0.02765
G1 X71.377 Y116.573 E0.02482
G1 X72.084 Y117.021 E0.02626
G1 X72.675 Y117.676 E0.02765
G1 X73.036 Y118.381 E0.02482
G1 X73.219 Y119.198 E0.02626
G1 X73.174 Y120.079 E0.02765
G1 X72.931 Y120.832 E0.02482
G1 X72.483 Y121.539 E0.02626
G1 X71.828 Y122.130 E0.02765
G1 X71.177 Y122.464 E0.02294
G1 X71.005 Y122.128 F9000.000
G1 F1200.000
G1 X70.274 Y122.295 E0.02351
G1 X69.494 Y122.255 E0.02449
G1 X68.833 Y122.042 E0.02177
G1 X68.210 Y121.647 E0.02314
G1 X67.687 Y121.067 E0.02449
G1 X67.370 Y120.449 E0.02177
G1 X67.209 Y119.729 E0.02314
G1 X67.249 Y118.949 E0.02449
G1 X67.462 Y118.288 E0.02177
G1 X67.857 Y117.665 E0.02314
G1 X68.437 Y117.142 E0.02449
G1 X69.055 Y116.825 E0.02177
G1 X69.775 Y116.664 E0.02314
G1 X70.555 Y116.704 E0.02449
G1 X71.216 Y116.917 E0.02177
G1 X71.839 Y117.312 E0.02314
G1 X72.362 Y117.892 E0.02449
G1 X72.679 Y118.510 E0.02177
G1 X72.840 Y119.230 E0.02314
G1 X72.800 Y120.010 E0.02449
G1 X72.587 Y120.671 E0.02177
G1 X72.192 Y121.294 E0.02314
G1 X71.612 Y121.817 E0.02449
G1 X71.058 Y122.101 E0.01951
G1 X70.886 Y121.765 F9000.000
G1 F1200.000
G1 X70.242 Y121.916 E0.02075
G1 X69.563 Y121.881 E0.02132
G1 X68.995 Y121.698 E0.01871
G1 X68.455 Y121.356 E0.02002
G1 X68.000 Y120.851 E0.02132
G1 X67.728 Y120.320 E0.01871
G1 X67.588 Y119.697 E0.02002
G1 X67.623 Y119.018 E0.02132
G1 X67.806 Y118.450 E0.01871
G1 X68.148 Y117.910 E0.02002
G1 X68.653 Y117.455 E0.02132
G1 X69.184 Y117.183 E0.01871
G1 X69.807 Y117.043 E0.02002
G1 X70.486 Y117.078 E0.02132
G1 X71.054 Y117.261 E0.01871
G1 X71.594 Y117.603 E0.02002
G1 X72.049 Y118.108 E0.02132
G1 X72.321 Y118.639 E0.01871
G1 X72.461 Y119.262 E0.02002
G1 X72.426 Y119.941 E0.02132
G1 X72.243 Y120.509 E0.01871
G1 X71.901 Y121.049 E0.02002
G1 X71.396 Y121.504 E0.02132
G1 X70.940 Y121.738 E0.01607
G1 X70.820 Y122.160 F9000.000
G1 E-3.50000 F3600.00000
G1 F7200.000
G1 X70.242 Y121.916 E-0.34214
G1 X69.563 Y121.881 E-0.32302
G1 X68.995 Y121.698 E-0.28346
G1 X68.455 Y121.356 E-0.30333
G1 X68.211 Y121.086 E-0.17305
G1 E-0.07500 F3600.00000
G1 X81.744 Y168.346 F9000.000
G1 E5.00000 F2400.00000
G1 F1200.000
G1 X82.525 Y168.243 E0.02471
G1 X83.397 Y168.343 E0.02750
G1 X84.178 Y168.667 E0.02652
G1 X84.842 Y169.177 E0.02626
G1 X85.352 Y169.841 E0.02626
G1 X85.673 Y170.614 E0.02626
G1 X85.782 Y171.445 E0.02626
G1 X85.673 Y172.275 E0.02626
G1 X85.371 Y173.003 E0.02471
G1 X84.849 Y173.708 E0.02750
G1 X84.178 Y174.223 E0.02652
G1 X83.404 Y174.543 E0.02625
G1 X82.574 Y174.652 E0.02626
G1 X81.744 Y174.543 E0.02626
G1 X81.016 Y174.242 E0.02471
G1 X80.311 Y173.719 E0.02750
G1 X79.796 Y173.049 E0.02652
G1 X79.476 Y172.275 E0.02626
G1 X79.366 Y171.445 E0.02626
G1 X79.476 Y170.614 E0.02626
G1 X79.796 Y169.841 E0.02626
G1 X80.306 Y169.177 E0.02626
G1 X80.970 Y168.667 E0.02626
G1 X81.688 Y168.369 E0.02437
G1 X81.833 Y168.718 F9000.000
G1 F1200.000
G1 X82.528 Y168.623 E0.02201
G1 X83.301 Y168.712 E0.02439
G1 X83.988 Y168.996 E0.02330
G1 X84.573 Y169.445 E0.02314
G1 X85.023 Y170.031 E0.02314
G1 X85.305 Y170.713 E0.02314
G1 X85.401 Y171.445 E0.02314
G1 X85.305 Y172.176 E0.02314
G1 X85.040 Y172.816 E0.02170
G1 X84.577 Y173.441 E0.02439
G1 X83.988 Y173.893 E0.02330
G1 X83.306 Y174.176 E0.02314
G1 X82.574 Y174.272 E0.02314
G1 X81.842 Y174.176 E0.02314
G1 X81.203 Y173.911 E0.02170
G1 X80.578 Y173.448 E0.02439
G1 X80.126 Y172.858 E0.02330
G1 X79.843 Y172.176 E0.02314
G1 X79.747 Y171.445 E0.02314
G1 X79.843 Y170.713 E0.02314
G1 X80.126 Y170.031 E0.02314
G1 X80.575 Y169.445 E0.02314
G1 X81.160 Y168.996 E0.02314
G1 X81.777 Y168.741 E0.02094
G1 X81.922 Y169.089 F9000.000
G1 F1200.000
G1 X82.532 Y169.003 E0.01931
G1 X83.206 Y169.080 E0.02127
G1 X83.798 Y169.326 E0.02009
G1 X84.304 Y169.714 E0.02003
G1 X84.693 Y170.221 E0.02003
G1 X84.938 Y170.811 E0.02003
G1 X85.021 Y171.445 E0.02003
G1 X84.938 Y172.078 E0.02003
G1 X84.710 Y172.629 E0.01869
G1 X84.306 Y173.174 E0.02127
G1 X83.798 Y173.564 E0.02009
G1 X83.207 Y173.808 E0.02003
G1 X82.574 Y173.892 E0.02003
G1 X81.941 Y173.808 E0.02003
G1 X81.390 Y173.580 E0.01869
G1 X80.845 Y173.176 E0.02127
G1 X80.455 Y172.668 E0.02009
G1 X80.210 Y172.078 E0.02003
G1 X80.127 Y171.445 E0.02003
G1 X80.210 Y170.811 E0.02003
G1 X80.455 Y170.221 E0.02003
G1 X80.844 Y169.714 E0.02003
G1 X81.351 Y169.326 E0.02003
G1 X81.866 Y169.112 E0.01750
G1 X82.023 Y168.702 F9000.000
G1 E-3.50000 F3600.00000
G1 F7200.000
G1 X82.532 Y169.003 E-0.32027
G1 X83.206 Y169.080 E-0.32230
G1 X83.798 Y169.326 E-0.30429
G1 X84.304 Y169.714 E-0.30343
G1 X84.528 Y170.006 E-0.17472
G1 E-0.07500 F3600.00000
G1 X165.055 Y170.220 F9000.000
G1 E5.00000 F2400.00000
G1 F1200.000
G1 X165.164 Y169.390 E0.02626
G1 X165.465 Y168.662 E0.02471
G1 X165.987 Y167.957 E0.02750
